X:464
T:Drowsy Maggie
R:reel
H:See also #18
D:Altan: Harvest Storm
Z:id:hn-reel-464
M:C|
K:Edor
E2Bd cABE|E2BG FADF|E2Bd cABc|1 dfec dAFD:|2 dfec dAFA||
d2fe dcBd|(3cBA eA ceAc|defe dcBc|def^g aecA|
d2fe dcBd|(3cBA eA ceAa|faec dcBa|^gbe^g aecA||
